X: 1
T: Dougal Campbell Esq of Ballinaby's Jig
C: Alexander Mackay
R: jig
S: Fiddle Hell Online 2021-11-7
N: Transposed from the handout's bass-clef version
Z: 2021 John Chambers <jc:trillian.mit.edu>
N: handwritten at top: "Abby Newton --- A favorite Ferintosh tune 2021"
M: 6/8
L: 1/8
Q: "Slowish?"
K: Am clef=treble middle=B
G \
| "Am"E2uA uABc | "G"BAG Bcd | "C"G>EE EDE | "C/G"GED "G"(D2G) |\
| "Am"E2A ABc | "G"BAG Bcd | "Em"e<de g2B | "Am"A>BA A2 :|
|: uc \
| "G"BAG Bcd | GAc BAB | "C"G>EE EDE | "C/G"G>ED "G"(D2c) |\
| "G"BAG Bcd | GAB dBd | "Em"e<de g2B | "Am"A>BA A2 :|
